images/img-services-1.svg

<?xml version="1.0" encoding="UTF-8" standalone="no"?>
<svg width="166px" height="128px" viewBox="0 0 166 128" version="1.1" xmlns="http://www.w3.org/2000/svg" xmlns:xlink="http://www.w3.org/1999/xlink">
    <!-- Generator: Sketch 50.2 (55047) - http://www.bohemiancoding.com/sketch -->
    <title>033-working</title>
    <desc>Created with Sketch.</desc>
    <defs></defs>
    <g id="Page-1" stroke="none" stroke-width="1" fill="none" fill-rule="evenodd">
        <g id="Landing-Page-MC" transform="translate(-152.000000, -915.000000)" fill-rule="nonzero">
            <g id="Group-6" transform="translate(120.000000, 864.000000)">
                <g id="033-working" transform="translate(32.857143, 51.289199)">
                    <path d="M64.1114983,12.0209059 L64.1114983,29.594835 C64.1114983,33.0153978 61.4092476,35.7923241 58.0702225,35.7923241 L56.3344466,35.7923241 L56.3344466,44.0766551 L41.6724739,44.0766551 L43.17552,34.9937504 L44.5654337,12.0209059 L64.1114983,12.0209059 Z" id="Shape" fill="#FFCEBF"></path>
                    <path d="M57.7003484,35.261324 L57.7003484,44.0766551 L52.8919861,44.0766551 L52.8919861,36.8888241 C52.8919861,35.9899922 53.6752899,35.261324 54.6415165,35.261324 L57.7003484,35.261324 Z" id="Shape" fill="#FFB09E"></path>
                    <path d="M71.3235037,6.27767324 C71.3465198,8.06941897 70.6297339,9.69380384 69.4559148,10.8620483 C68.3051117,12.0138849 66.7104275,12.7259889 64.9480548,12.7259889 L51.6316196,12.7259889 C49.4977019,12.7259889 47.7682093,14.452103 47.7682093,16.581852 L47.7682093,30.3612299 C47.7682093,32.625524 45.9269245,34.4599303 43.6581984,34.4599303 L34.6917987,34.4599303 C31.8838393,34.4599303 29.8518499,31.7788749 30.6146679,29.0781299 L33.304259,19.591066 C34.0078929,17.1134689 34.3662858,14.5472689 34.3662858,11.9745058 L34.3662858,11.9712242 C34.3662858,5.36211086 39.7356041,0 46.3609416,0 L64.7836544,0 C68.2985357,0 71.2741836,2.76965824 71.3235037,6.27767324 Z" id="Shape" fill="#87523E"></path>
                    <path d="M46.6749627,13.6236934 L52.0905923,13.6236934 C49.8938776,13.6236934 48.1134893,15.4058052 48.1134893,17.6046467 L48.1134893,31.8310491 C48.1134893,34.1688004 46.2180189,36.0627178 43.8825286,36.0627178 L38.466899,36.0627178 C40.8023892,36.0627178 42.6978596,34.1688004 42.6978596,31.8310491 L42.6978596,17.6046467 C42.6978596,15.4058052 44.4782479,13.6236934 46.6749627,13.6236934 Z" id="Shape" fill="#7C4B37"></path>
                    <path d="M71.3234937,6.32518289 C71.3469382,8.13048861 70.6168078,9.76716688 69.4211356,10.9442527 C68.2489079,12.1048063 66.6245352,12.8222997 64.8293522,12.8222997 L59.470597,12.8222997 C61.26578,12.8222997 62.8901527,12.1048063 64.0623804,10.9442527 C65.2580526,9.76716688 65.988183,8.13048861 65.9647385,6.32518289 C65.9145001,2.79061911 62.8834542,0 59.3031359,0 L64.6618911,0 C68.2422094,0 71.2732554,2.79061911 71.3234937,6.32518289 Z" id="Shape" fill="#7C4B37"></path>
                    <path d="M60.9059233,44.336155 L60.9059233,90.3022329 L44.0763259,93.7630662 L27.2473868,90.3022329 L31.6279003,47.8273321 C32.0360023,43.8761027 35.396261,40.8710801 39.4048752,40.8710801 L57.4107277,40.8710801 C59.3426296,40.8710801 60.9059233,42.4209018 60.9059233,44.336155 Z" id="Shape" fill="#FFD15B"></path>
                    <path d="M60.9059233,44.3471738 L60.9059233,90.4594212 L56.3977565,91.358885 L54.1011432,90.4594212 L54.1011432,44.3471738 C54.1011432,42.4258301 52.4850079,40.8710801 50.4878049,40.8710801 L57.2925851,40.8710801 C59.2897881,40.8710801 60.9059233,42.4258301 60.9059233,44.3471738 Z" id="Shape" fill="#FFC344"></path>
                    <path d="M77.7842108,91.358885 L80.9407666,101.376307 L77.7842108,111.393728 L42.7861864,111.393728 C33.8847648,111.393728 26.7997589,103.861608 27.2694649,94.8946405 L27.6274925,91.358885 L77.7842108,91.358885 Z" id="Shape" fill="#5A5A5A"></path>
                    <polygon id="Shape" fill="#444444" points="78.3692871 91.358885 81.7421603 101.376307 78.3692871 111.393728 69.7212544 111.393728 69.7212544 91.358885"></polygon>
                    <path d="M134.633024,68.9198606 C134.393187,68.9198606 134.149187,68.8830819 133.908069,68.8056187 C132.64356,68.3990997 131.942621,67.0272203 132.342243,65.7419173 L143.5656,29.7540856 C143.965862,28.4691081 145.314266,27.7572931 146.579736,28.1625101 C147.844245,28.5690291 148.545184,29.9409086 148.145562,31.2262115 L136.922205,67.2140433 C136.598152,68.2545886 135.652252,68.9198606 134.633024,68.9198606 Z" id="Shape" fill="#DDEAFB"></path>
                    <polygon id="Shape" fill="#DDEAFB" points="98.5714286 63.3101045 137.839721 63.3101045 137.839721 73.728223 98.5714286 73.728223"></polygon>
                    <polygon id="Shape" fill="#CBE2FF" points="128.222997 63.3101045 138.641115 63.3101045 138.641115 73.728223 128.222997 73.728223"></polygon>
                    <path d="M59.3018938,118.709454 C59.2261865,123.130462 55.5165265,126.620209 51.1255004,126.620209 L18.8840456,126.620209 C8.45288984,126.620209 0,118.106288 0,107.607221 L0,49.7331024 C0,47.7744696 0.816322695,46.1306763 2.05397323,44.9972543 C4.23631979,42.9822819 7.7418991,42.5448208 10.4146976,44.7155559 C11.1256883,45.285581 11.6951392,45.9981124 12.1033006,46.7968103 C12.5048787,47.5921942 12.7484589,48.4770587 12.7945416,49.3917502 L15.6055883,102.828289 C15.8327103,107.139933 19.3712059,110.517 23.6569,110.517 L51.3065397,110.517 C53.5152192,110.517 55.5132349,111.418435 56.9582577,112.876639 C58.4361968,114.364669 59.3413933,116.429353 59.3018938,118.709454 Z" id="Shape" fill="#5A5A5A"></path>
                    <path d="M24.0418118,110.592334 L15.0190196,110.592334 C10.5674564,110.592334 6.89201048,107.211484 6.65609814,102.89501 L3.73625557,49.3986028 C3.6883893,48.4828866 3.43538186,47.5970307 3.01826149,46.8007557 C2.66268347,46.1272398 2.18743978,45.5167623 1.60278746,44.9991836 C3.86959733,42.9819536 7.510853,42.5440024 10.2870968,44.7171695 C11.025605,45.2878332 11.6170953,46.0011629 12.0410537,46.8007557 C12.4581741,47.5970307 12.7111815,48.4828866 12.7590478,49.3986028 L15.6788904,102.89501 C15.9148027,107.211484 19.5902486,110.592334 24.0418118,110.592334 Z" id="Shape" fill="#444444"></path>
                    <path d="M59.3018964,119.547856 C59.226346,123.948182 55.5243767,127.421603 51.142454,127.421603 L42.4738676,127.421603 C46.8557904,127.421603 50.5577596,123.948182 50.63331,119.547856 C50.6727276,117.278422 49.7694077,115.223397 48.2945326,113.742328 C46.8525056,112.290946 44.8586322,111.393728 42.6545316,111.393728 L51.3231179,111.393728 C53.5272185,111.393728 55.5210919,112.290946 56.963119,113.742328 C58.4379941,115.223397 59.341314,117.278422 59.3018964,119.547856 Z" id="Shape" fill="#444444"></path>
                    <path d="M103.379791,72.9268293 L90.7160004,72.9268293 L88.9547038,66.8550749 L90.7160004,60.1045296 C97.7100409,60.1045296 103.379791,65.8452463 103.379791,72.9268293 Z" id="Shape" fill="#FFCEBF"></path>
                    <path d="M90.5574913,60.3349937 L90.5574913,72.9268293 L71.5289845,72.9268293 C66.8475245,72.9268293 62.396354,70.9247532 59.3532405,67.4452608 L45.7299614,51.8824987 C42.9796447,48.7377586 43.8810643,44.3537913 46.8123228,42.1907766 C47.9177133,41.3732086 49.3126107,40.8710801 50.9081892,40.8710801 C51.8754058,40.8710801 52.8195935,41.0738628 53.6848247,41.4504591 C54.5500559,41.8302742 55.3363306,42.3871217 55.9844316,43.0920327 L67.0021475,55.1173645 C70.0452611,58.439137 74.3845765,60.3349937 78.9410222,60.3349937 L90.5574913,60.3349937 Z" id="Shape" fill="#FFD15B"></path>
                    <path d="M79.3379791,60.9059233 L71.1976701,60.9059233 C66.6515701,60.9059233 62.318825,58.9544561 59.2859034,55.5352468 L48.5081999,42.5823413 C48.1996559,42.2377699 47.728634,42.1267781 47.28223,42.2294869 C48.3851105,41.3879373 49.7768408,40.8710801 51.3687964,40.8710801 C52.3338169,40.8710801 53.2758607,41.0798109 54.1391274,41.4674538 C55.002394,41.8584099 55.7868835,42.4315913 56.4335128,43.1571793 L67.4262124,55.5352468 C70.4624164,58.9544561 74.7918791,60.9059233 79.3379791,60.9059233 Z" id="Shape" fill="#FFC344"></path>
                    <path d="M113.797909,19.2334495 C112.46984,19.2334495 111.393728,18.1182191 111.393728,16.7418714 L111.393728,11.3069091 C111.393728,9.93056136 112.46984,8.81533101 113.797909,8.81533101 C115.125979,8.81533101 116.202091,9.93056136 116.202091,11.3069091 L116.202091,16.7415392 C116.202091,18.1178869 115.125979,19.2334495 113.797909,19.2334495 Z" id="Shape" fill="#FFF0AD"></path>
                    <path d="M100.871354,21.6376307 C99.9044965,21.6376307 98.9831384,21.0989663 98.5709695,20.1957416 L96.3779765,15.3897652 C95.8229536,14.1729609 96.4020643,12.7551193 97.6716918,12.2228676 C98.9409848,11.6909365 100.420711,12.2459532 100.976069,13.4627576 L103.169062,18.2687339 C103.724085,19.4855382 103.144974,20.9033798 101.875347,21.4356315 C101.548489,21.5725421 101.20691,21.6376307 100.871354,21.6376307 Z" id="Shape" fill="#FFF0AD"></path>
                    <path d="M125.922928,21.6376307 C125.587045,21.6376307 125.246143,21.5728649 124.918958,21.4353178 C123.649024,20.9034047 123.070261,19.4856112 123.625606,18.2688482 L125.818885,13.4630348 C126.373895,12.2459511 127.854593,11.690312 129.122854,12.2235075 C130.392788,12.7554205 130.971551,14.173214 130.416206,15.3899771 L128.222927,20.1957905 C127.811102,21.0989846 126.889764,21.6376307 125.922928,21.6376307 Z" id="Shape" fill="#FFF0AD"></path>
                    <path d="M164.285714,85.4618365 L164.285714,124.844716 C164.285714,126.267693 163.133188,127.421603 161.711175,127.421603 L80.3097308,127.421603 C78.8880495,127.421603 77.7351916,126.268025 77.7351916,124.844716 L77.7351916,85.4631636 L134.287544,82.543554 L164.285714,85.4618365 Z" id="Shape" fill="#DDEAFB"></path>
                    <path d="M164.285714,85.7968834 L164.285714,124.864284 C164.285714,126.27624 163.065033,127.421603 161.560227,127.421603 L152.264808,127.421603 C153.769614,127.421603 154.990295,126.27624 154.990295,124.864284 L154.990295,84.9477352 L164.285714,85.7968834 Z" id="Shape" fill="#CBE2FF"></path>
                    <path d="M164.285714,77.2355401 L164.285714,86.5505226 L77.7351916,86.5505226 L77.7351916,74.5296167 L161.711175,74.5296167 C163.133188,74.5296167 164.285714,75.741115 164.285714,77.2355401 Z" id="Shape" fill="#5A5A5A"></path>
                    <path d="M164.285714,77.2369338 L164.285714,86.5505226 L154.990295,86.5505226 L154.990295,77.2369338 C154.990295,75.7421603 153.769614,74.5296167 152.264808,74.5296167 L161.560227,74.5296167 C163.065033,74.5296167 164.285714,75.7421603 164.285714,77.2369338 Z" id="Shape" fill="#444444"></path>
                </g>
            </g>
        </g>
    </g>
</svg>

<svg xmlns="http://www.w3.org/2000/svg" viewBox="0 0 166 128"><g fill="none" fill-rule="nonzero" stroke="none" stroke-width="1" transform="translate(-152 -915) translate(120 864) translate(32.857 51.29)"><path fill="#FFCEBF" d="M64.111 12.02v17.575c0 3.42-2.702 6.197-6.04 6.197h-1.737v8.285H41.672l1.504-9.083 1.39-22.973H64.11z"/><path fill="#FFB09E" d="M57.7 35.261v8.816h-4.808v-7.188c0-.899.783-1.628 1.75-1.628H57.7z"/><path fill="#87523E" d="M71.324 6.278a6.33 6.33 0 0 1-1.868 4.584 6.351 6.351 0 0 1-4.508 1.864H51.632a3.86 3.86 0 0 0-3.864 3.856v13.78a4.105 4.105 0 0 1-4.11 4.098h-8.966c-2.808 0-4.84-2.681-4.077-5.382l2.69-9.487a27.897 27.897 0 0 0 1.061-7.616v-.004C34.366 5.362 39.736 0 46.361 0h18.423c3.515 0 6.49 2.77 6.54 6.278z"/><path fill="#7C4B37" d="M46.675 13.624h5.416a3.979 3.979 0 0 0-3.978 3.98v14.227a4.232 4.232 0 0 1-4.23 4.232h-5.416a4.232 4.232 0 0 0 4.23-4.232V17.605a3.979 3.979 0 0 1 3.978-3.981zM71.323 6.325a6.342 6.342 0 0 1-1.902 4.62 6.506 6.506 0 0 1-4.592 1.877h-5.358c1.795 0 3.42-.717 4.591-1.878a6.342 6.342 0 0 0 1.903-4.619C65.915 2.791 62.883 0 59.303 0h5.359c3.58 0 6.611 2.79 6.661 6.325z"/><path fill="#FFD15B" d="M60.906 44.336v45.966l-16.83 3.461-16.829-3.46 4.38-42.476c.409-3.95 3.77-6.956 7.778-6.956H57.41c1.932 0 3.495 1.55 3.495 3.465z"/><path fill="#FFC344" d="M60.906 44.347V90.46l-4.508.9-2.297-.9V44.347c0-1.921-1.616-3.476-3.613-3.476h6.805c1.997 0 3.613 1.555 3.613 3.476z"/><path fill="#5A5A5A" d="m77.784 91.359 3.157 10.017-3.157 10.018H42.786c-8.901 0-15.986-7.532-15.517-16.5l.358-3.535h50.157z"/><path fill="#444" d="M78.3692871 91.358885 81.7421603 101.376307 78.3692871 111.393728 69.7212544 111.393728 69.7212544 91.358885z"/><path fill="#DDEAFB" d="M134.633 68.92c-.24 0-.484-.037-.725-.114-1.264-.407-1.965-1.779-1.566-3.064l11.224-35.988c.4-1.285 1.748-1.997 3.014-1.591 1.264.406 1.965 1.778 1.566 3.063l-11.224 35.988a2.408 2.408 0 0 1-2.289 1.706z"/><path fill="#DDEAFB" d="M98.5714286 63.3101045 137.839721 63.3101045 137.839721 73.728223 98.5714286 73.728223z"/><path fill="#CBE2FF" d="M128.222997 63.3101045 138.641115 63.3101045 138.641115 73.728223 128.222997 73.728223z"/><path fill="#5A5A5A" d="M59.302 118.71c-.076 4.42-3.785 7.91-8.176 7.91H18.884C8.453 126.62 0 118.106 0 107.607V49.733c0-1.959.816-3.602 2.054-4.736 2.182-2.015 5.688-2.452 8.36-.281a6.385 6.385 0 0 1 1.69 2.08c.4.796.644 1.681.69 2.596l2.812 53.436c.227 4.312 3.765 7.689 8.05 7.689h27.65a7.93 7.93 0 0 1 5.652 2.36 8.05 8.05 0 0 1 2.344 5.832z"/><path fill="#444" d="M24.042 110.592h-9.023c-4.452 0-8.127-3.38-8.363-7.697l-2.92-53.496a6.318 6.318 0 0 0-2.133-4.4c2.267-2.017 5.908-2.455 8.684-.282a6.444 6.444 0 0 1 1.754 2.084c.417.796.67 1.682.718 2.598l2.92 53.496c.236 4.316 3.911 7.697 8.363 7.697zM59.302 119.548c-.076 4.4-3.778 7.874-8.16 7.874h-8.668c4.382 0 8.084-3.474 8.16-7.874a8 8 0 0 0-2.34-5.806 7.924 7.924 0 0 0-5.64-2.348h8.67c2.203 0 4.197.897 5.64 2.348a8 8 0 0 1 2.338 5.806z"/><path fill="#FFCEBF" d="M103.38 72.927H90.716l-1.761-6.072 1.761-6.75c6.994 0 12.664 5.74 12.664 12.822z"/><path fill="#FFD15B" d="M90.557 60.335v12.592H71.53c-4.681 0-9.133-2.002-12.176-5.482L45.73 51.882c-2.75-3.144-1.849-7.528 1.082-9.691 1.106-.818 2.5-1.32 4.096-1.32a6.883 6.883 0 0 1 5.076 2.221l11.018 12.025c3.043 3.322 7.383 5.218 11.939 5.218h11.616z"/><path fill="#FFC344" d="M79.338 60.906h-8.14a15.922 15.922 0 0 1-11.912-5.37L48.508 42.581c-.308-.344-.78-.455-1.226-.353 1.103-.841 2.495-1.358 4.087-1.358a6.76 6.76 0 0 1 5.065 2.286l10.992 12.378a15.927 15.927 0 0 0 11.912 5.37z"/><path fill="#FFF0AD" d="M113.798 19.233c-1.328 0-2.404-1.115-2.404-2.491v-5.435c0-1.376 1.076-2.492 2.404-2.492 1.328 0 2.404 1.116 2.404 2.492v5.435c0 1.376-1.076 2.491-2.404 2.491zM100.871 21.638c-.967 0-1.888-.539-2.3-1.442l-2.193-4.806c-.555-1.217.024-2.635 1.294-3.167 1.269-.532 2.749.023 3.304 1.24l2.193 4.806c.555 1.217-.024 2.634-1.294 3.167a2.597 2.597 0 0 1-1.004.202zM125.923 21.638c-.336 0-.677-.065-1.004-.203-1.27-.532-1.849-1.95-1.293-3.166l2.193-4.806c.555-1.217 2.036-1.773 3.304-1.24 1.27.532 1.849 1.95 1.293 3.167l-2.193 4.806c-.412.903-1.333 1.442-2.3 1.442z"/><path fill="#DDEAFB" d="M164.286 85.462v39.383a2.576 2.576 0 0 1-2.575 2.577H80.31a2.576 2.576 0 0 1-2.575-2.577V85.463l56.553-2.92 29.998 2.919z"/><path fill="#CBE2FF" d="M164.286 85.797v39.067c0 1.412-1.221 2.558-2.726 2.558h-9.295c1.505 0 2.725-1.146 2.725-2.558V84.948l9.296.849z"/><path fill="#5A5A5A" d="M164.286 77.236v9.315h-86.55V74.53h83.975c1.422 0 2.575 1.211 2.575 2.706z"/><path fill="#444" d="M164.286 77.237v9.314h-9.296v-9.314a2.717 2.717 0 0 0-2.725-2.707h9.295a2.717 2.717 0 0 1 2.726 2.707z"/></g></svg>
